X:242
T:Royal Polka Quadrilles No.4. Le4.242, The
M:2/4
L:1/8
Q:2/4=50
B:L.Leadley MS#4 c1850
Z:Village Music Project 2016 Steve Mansfield
K:C
!segno! g/f/e e/d/c | cB/c/ d/e/f | f/e/d d/c/B | c/d/e/f/ g/a/g |
g/f/e e/d/c | cB/c/ d/e/f | f/e/d d/c/B | c/a/g/e/ cz H ||
ez ez | ed/e/ f/e/d | dz dz | dc/d/ e/d/c |
GA/B/ c/d/e | GA/B/ c/d/e | d^c d2 | cB c2 |
ez e2 | ed/e/ f/e/d | dz dz | dc/d/ e/d/c |
GA/B/ c/d/e | GA/B/ c/d/e | d^c d2 | cB c2 !segno! ||
[K:F]
(3aca (3g_Bg | (3aca c2 | (3aca B2 | (3dBd c2 |
(3aca (3g_Bg | (3aca c2 | a/_b/c'/d'/ e'2 | e'/d'/c'/b/ az ||
c/d/e/f/ g/a/b/=b/ | e'c' c'/=b/a | c'b b/a/g | ba a/g/f |
c/d/e/f/ g/a/b/=b/ | d'c' b/a/g | c'b b/a/g | ff'f !segno! |]

